X:1
T:Dillan Bay
M:4/4
L:1/4
K:D
 F A A2| B d d2| F A A2| G F E2| F A A2| B d d2| A3/2 F/2 G E| D4-|\
 D2 z2|
